X: 203
T: Miss Cragie of Dumbarnie's Strathspey
R: strathspey
B: William Shepherd "2nd Collection" 1800 p.20 #3
F: http://imslp.org/wiki/File:PMLP73094-Shepherd_Collections_HMT.pdf
C: William Shepherd (17??-1812)
Z: 2012 John Chambers <jc:trillian.mit.edu>
M: C
L: 1/16
K: G
D2 |\
G3GTB3G [E4C4]D3G | TG3G (cB).A.G TF3A (dc).B.A |\
G3GTB3G [E4C4]D3G | F3GA3c B3GG3 |
D |\
G3GTB3G [E4C4]D3G | TG3G (cB).A.G TF3A (dc).B.A |\
G3GTB3G [E4C4]D3G | TF3A D2dc B2G2TG2 ||
d2 |\
Tg3gb3g d3g B3d | Tg3gb3g e3a {g}f2.e.d |\
Tg3gb3g B3d B3G | E3c {B}A2GF D3GG3 |
d |\
Tg3gb3g d3g B3d | G3Bd3B A3a {g}f2.e.d |\
(g3b)d3B Tc3a B3G | E3c {A}G2.F.E D2G2TG2 |]
